tenants/donaldduck/icons/replay.svg

<svg fill="none" height="24" viewBox="0 0 24 24" width="24" xmlns="http://www.w3.org/2000/svg"><path d="m2.822 10.183-.412.41-.41-.41.41-.408zm19.178 9.24c.0001.0761-.0148.1516-.044.2219s-.0721.1342-.1261.1878c-.054.0537-.1182.0961-.1887.1248s-.1461.0432-.2222.0425c-.1532-.0005-.3001-.0613-.4088-.1693-.1088-.108-.1706-.2545-.1722-.4077zm-13.778-3.056-5.812-5.775.823-.817 5.812 5.774zm-5.812-6.592 5.812-5.775.823.818-5.812 5.774zm.412-.17h11.623v1.156h-11.623v-1.155zm19.178 7.509v2.309h-1.162v-2.309zm-7.555-7.507c2.0011-.00088 3.9214.7896 5.342 2.199.7006.695 1.2568 1.5217 1.6366 2.4325s.5757 1.8887.5764 2.8755h-1.162c0-1.685-.674-3.301-1.873-4.493-1.2021-1.1923-2.8269-1.8609-4.52-1.86v-1.155z" fill="#000"/><path d="m2.41 10.592.412-.409-.412-.408m0 .817-.41-.409.41-.408m0 .817 5.812 5.775.823-.818-5.812-5.774zm0-.817 5.812-5.775.823.818-5.812 5.774zm19.59 9.648c.0001.0761-.0148.1516-.044.2219s-.0721.1342-.1261.1878c-.054.0537-.1182.0961-.1887.1248s-.1461.0432-.2222.0425c-.1532-.0005-.3001-.0613-.4088-.1693-.1088-.108-.1706-.2545-.1722-.4077m1.162 0h-1.162m1.162 0v-2.31m-1.162 2.31v-2.31m1.162 0c-.0006-.987-.1964-1.9641-.5762-2.8751s-.9361-1.7378-1.6368-2.4329c-1.4206-1.4094-3.3409-2.19988-5.342-2.199m7.555 7.507h-1.162m0 0c-.0005-.8353-.1662-1.6622-.4877-2.4331-.3214-.771-.7923-1.4707-1.3853-2.0589-1.199-1.191-2.825-1.86-4.52-1.86m0-1.155h-11.623v1.155h11.623m0-1.155v1.155" stroke="#000" stroke-width=".8"/></svg>

<svg width="24" height="24" viewBox="0 0 24 24" fill="none" xmlns="http://www.w3.org/2000/svg">
<path d="M2.822 10.183L2.41 10.593L2 10.183L2.41 9.775L2.822 10.183ZM22 19.423C22.0001 19.4991 21.9852 19.5746 21.956 19.6449C21.9268 19.7152 21.8839 19.7791 21.8299 19.8327C21.7759 19.8864 21.7117 19.9288 21.6412 19.9575C21.5707 19.9862 21.4951 20.0007 21.419 20C21.2658 19.9995 21.1189 19.9387 21.0102 19.8307C20.9014 19.7227 20.8396 19.5762 20.838 19.423H22ZM8.222 16.367L2.41 10.592L3.233 9.775L9.045 15.549L8.222 16.367ZM2.41 9.775L8.222 4L9.045 4.818L3.233 10.592L2.41 9.775ZM2.822 9.605H14.445V10.761H2.822V9.606V9.605ZM22 17.114V19.423H20.838V17.114H22ZM14.445 9.607C16.4461 9.60612 18.3664 10.3966 19.787 11.806C20.4876 12.501 21.0438 13.3277 21.4236 14.2385C21.8034 15.1493 21.9993 16.1272 22 17.114H20.838C20.838 15.429 20.164 13.813 18.965 12.621C17.7629 11.4287 16.1381 10.7601 14.445 10.761V9.606V9.607Z" fill="black"/>
<path d="M2.41 10.592L2.822 10.183L2.41 9.775M2.41 10.592L2 10.183L2.41 9.775M2.41 10.592L8.222 16.367L9.045 15.549L3.233 9.775L2.41 10.592ZM2.41 9.775L8.222 4L9.045 4.818L3.233 10.592L2.41 9.775ZM22 19.423C22.0001 19.4991 21.9852 19.5746 21.956 19.6449C21.9268 19.7152 21.8839 19.7791 21.8299 19.8327C21.7759 19.8864 21.7117 19.9288 21.6412 19.9575C21.5707 19.9862 21.4951 20.0007 21.419 20C21.2658 19.9995 21.1189 19.9387 21.0102 19.8307C20.9014 19.7227 20.8396 19.5762 20.838 19.423M22 19.423H20.838M22 19.423V17.113M20.838 19.423V17.113M22 17.113C21.9994 16.126 21.8036 15.1489 21.4238 14.2379C21.044 13.3269 20.4877 12.5001 19.787 11.805C18.3664 10.3956 16.4461 9.60512 14.445 9.606M22 17.113H20.838M20.838 17.113C20.8375 16.2777 20.6718 15.4508 20.3503 14.6799C20.0289 13.9089 19.558 13.2092 18.965 12.621C17.766 11.43 16.14 10.761 14.445 10.761M14.445 9.606H2.822V10.761H14.445M14.445 9.606V10.761" stroke="black" stroke-width="0.8"/>
</svg>
